projects/js-packages/social-logos/src/svg/wordpress.svg

<svg enable-background="new 0 0 24 24" viewBox="0 0 24 24" xmlns="http://www.w3.org/2000/svg"><path d="m12.158 12.786-2.698 7.839c.806.237 1.657.366 2.54.366 1.047 0 2.051-.181 2.986-.51-.024-.038-.046-.079-.065-.124zm-9.149-.786c0 3.559 2.068 6.634 5.067 8.092l-4.288-11.751c-.499 1.118-.779 2.355-.779 3.659zm15.06-.454c0-1.112-.399-1.881-.741-2.48-.456-.741-.883-1.368-.883-2.109 0-.826.627-1.596 1.51-1.596.04 0 .078.005.116.007-1.599-1.464-3.731-2.359-6.071-2.359-3.141 0-5.904 1.612-7.512 4.052.211.007.41.011.579.011.94 0 2.396-.114 2.396-.114.484-.028.541.684.057.741 0 0-.487.057-1.029.085l3.274 9.739 1.968-5.901-1.401-3.838c-.484-.028-.943-.085-.943-.085-.485-.029-.428-.769.057-.741 0 0 1.484.114 2.368.114.94 0 2.397-.114 2.397-.114.485-.028.542.684.057.741 0 0-.488.057-1.029.085l3.249 9.665.897-2.996c.456-1.169.684-2.137.684-2.907zm1.82-3.86c.039.286.06.593.06.924 0 .912-.171 1.938-.684 3.22l-2.746 7.94c2.673-1.558 4.47-4.454 4.47-7.771.002-1.563-.398-3.032-1.1-4.313zm-7.889 14.314c-5.514 0-10-4.486-10-10s4.486-10 10-10 10 4.486 10 10-4.486 10-10 10z"/></svg>

<?xml version="1.0" encoding="iso-8859-1"?>
<!-- Generator: Adobe Illustrator 19.2.1, SVG Export Plug-In . SVG Version: 6.00 Build 0)  -->
<svg version="1.1" xmlns="http://www.w3.org/2000/svg" xmlns:xlink="http://www.w3.org/1999/xlink" x="0px" y="0px"
	 viewBox="0 0 24 24" style="enable-background:new 0 0 24 24;" xml:space="preserve">
<g id="wordpress">
	<path d="M12.158,12.786L9.46,20.625c0.806,0.237,1.657,0.366,2.54,0.366c1.047,0,2.051-0.181,2.986-0.51
		c-0.024-0.038-0.046-0.079-0.065-0.124L12.158,12.786z M3.009,12c0,3.559,2.068,6.634,5.067,8.092L3.788,8.341
		C3.289,9.459,3.009,10.696,3.009,12z M18.069,11.546c0-1.112-0.399-1.881-0.741-2.48c-0.456-0.741-0.883-1.368-0.883-2.109
		c0-0.826,0.627-1.596,1.51-1.596c0.04,0,0.078,0.005,0.116,0.007C16.472,3.904,14.34,3.009,12,3.009
		c-3.141,0-5.904,1.612-7.512,4.052c0.211,0.007,0.41,0.011,0.579,0.011c0.94,0,2.396-0.114,2.396-0.114
		C7.947,6.93,8.004,7.642,7.52,7.699c0,0-0.487,0.057-1.029,0.085l3.274,9.739l1.968-5.901l-1.401-3.838
		C9.848,7.756,9.389,7.699,9.389,7.699C8.904,7.67,8.961,6.93,9.446,6.958c0,0,1.484,0.114,2.368,0.114
		c0.94,0,2.397-0.114,2.397-0.114c0.485-0.028,0.542,0.684,0.057,0.741c0,0-0.488,0.057-1.029,0.085l3.249,9.665l0.897-2.996
		C17.841,13.284,18.069,12.316,18.069,11.546z M19.889,7.686c0.039,0.286,0.06,0.593,0.06,0.924c0,0.912-0.171,1.938-0.684,3.22
		l-2.746,7.94c2.673-1.558,4.47-4.454,4.47-7.771C20.991,10.436,20.591,8.967,19.889,7.686z M12,22C6.486,22,2,17.514,2,12
		C2,6.486,6.486,2,12,2c5.514,0,10,4.486,10,10C22,17.514,17.514,22,12,22z"/>
</g>
<g id="Layer_1">
</g>
</svg>
